/* XPM */
static char * button-active.xpm[] = {
"24 24 2 1",
"a c #282e3c",
"b c #8a43bd",
"aaaaaaaaaaaaaaaaaaaaaaaa",
"aaaaaaaaaaaaaaaaaaaaaaaa",
"aaaaaaaaaaaaaaaaaaaaaaaa",
"aaaaaaaaaaaaaaaaaaaaaaaa",
"aaaaaaaaaaaaaaaaaaaaaaaa",
"aaaaaaaaaaaaaaaaaabaaaaa",
"aaaaaaabaaaaaaaaabbbaaaa",
"aaaaaabbbaaaaaaabbbaaaaa",
"aaaaaaabbbaaaaabbbaaaaaa",
"aaaaaaaabbbaaabbbaaaaaaa",
"aaaaaaaaabbbabbbaaaaaaaa",
"aaaaaaaaaabbbbbaaaaaaaaa",
"aaaaaaaaaaabbbaaaaaaaaaa",
"aaaaaaaaaabbbbbaaaaaaaaa",
"aaaaaaaaabbbabbbaaaaaaaa",
"aaaaaaaabbbaaabbbaaaaaaa",
"aaaaaaabbbaaaaabbbaaaaaa",
"aaaaaabbbaaaaaaabbbaaaaa",
"aaaaaaabaaaaaaaaabbbaaaa",
"aaaaaaaaaaaaaaaaaabaaaaa",
"aaaaaaaaaaaaaaaaaaaaaaaa",
"aaaaaaaaaaaaaaaaaaaaaaaa",
"aaaaaaaaaaaaaaaaaaaaaaaa",
"aaaaaaaaaaaaaaaaaaaaaaaa",
};
