/* XPM */
static char * maximize-active.xpm[] = {
"24 24 2 1",
"a c #282e3c",
"b c #8a43bd",
"aaaaaaaaaaaaaaaaaaaaaaaa",
"aaaaaaaaaaaaaaaaaaaaaaaa",
"aaaaaaaaaaaaaaaaaaaaaaaa",
"aaaaaaaaaaaaaaaaaaaaaaaa",
"aaaaaaaaaaaaaaaaaaaaaaaa",
"aaaaabbbbbbbbbbbbbbbaaaa",
"aaaaabbbbbbbbbbbbbbbaaaa",
"aaaaabbaaaaaaaaaaabbaaaa",
"aaaaabbaaaaaaaaaaabbaaaa",
"aaaaabbaaaaaaaaaaabbaaaa",
"aaaaabbaaaaaaaaaaabbaaaa",
"aaaaabbaaaaaaaaaaabbaaaa",
"aaaaabbaaaaaaaaaaabbaaaa",
"aaaaabbaaaaaaaaaaabbaaaa",
"aaaaabbaaaaaaaaaaabbaaaa",
"aaaaabbaaaaaaaaaaabbaaaa",
"aaaaabbaaaaaaaaaaabbaaaa",
"aaaaabbaaaaaaaaaaabbaaaa",
"aaaaabbbbbbbbbbbbbbbaaaa",
"aaaaabbbbbbbbbbbbbbbaaaa",
"aaaaaaaaaaaaaaaaaaaaaaaa",
"aaaaaaaaaaaaaaaaaaaaaaaa",
"aaaaaaaaaaaaaaaaaaaaaaaa",
"aaaaaaaaaaaaaaaaaaaaaaaa",
};
