/* XPM */
static char * maximize-hover.xpm[] = {
"24 24 2 1",
"a c #282e3c",
"b c #e6e9ef",
"aaaaaaaaaaaaaaaaaaaaaaaa",
"aaaaaaaaaaaaaaaaaaaaaaaa",
"aaaaaaaaaaaaaaaaaaaaaaaa",
"aaaaaaaaaaaaaaaaaaaaaaaa",
"aaaaaaaaaaaaaaaaaaaaaaaa",
"aaaaabbbbbbbbbbbbbbbaaaa",
"aaaaabbbbbbbbbbbbbbbaaaa",
"aaaaabbaaaaaaaaaaabbaaaa",
"aaaaabbaaaaaaaaaaabbaaaa",
"aaaaabbaaaaaaaaaaabbaaaa",
"aaaaabbaaaaaaaaaaabbaaaa",
"aaaaabbaaaaaaaaaaabbaaaa",
"aaaaabbaaaaaaaaaaabbaaaa",
"aaaaabbaaaaaaaaaaabbaaaa",
"aaaaabbaaaaaaaaaaabbaaaa",
"aaaaabbaaaaaaaaaaabbaaaa",
"aaaaabbaaaaaaaaaaabbaaaa",
"aaaaabbaaaaaaaaaaabbaaaa",
"aaaaabbbbbbbbbbbbbbbaaaa",
"aaaaabbbbbbbbbbbbbbbaaaa",
"aaaaaaaaaaaaaaaaaaaaaaaa",
"aaaaaaaaaaaaaaaaaaaaaaaa",
"aaaaaaaaaaaaaaaaaaaaaaaa",
"aaaaaaaaaaaaaaaaaaaaaaaa",
};
